symbols/web/celebration/materialsymbolsrounded/celebration_wght600_24px.svg

<svg xmlns="http://www.w3.org/2000/svg" height="24" width="24"><path d="M4.125 21.925q-.8.3-1.412-.3-.613-.6-.313-1.4l3.25-9.075q.475-1.375 1.888-1.7 1.412-.325 2.462.725l4.175 4.15q1.05 1.075.725 2.487-.325 1.413-1.725 1.888Zm1.7-3.425 6.45-2.3-4.125-4.15Zm8.65-6.35q-.275-.275-.275-.65t.275-.65l4.725-4.7q.875-.9 2.138-.9 1.262 0 2.137.9l.075.05q.25.25.275.625.025.375-.275.65-.25.275-.625.275t-.65-.275L22.2 7.4q-.35-.35-.875-.35t-.875.35l-4.725 4.775q-.25.225-.625.225t-.625-.25ZM10.05 7.7q-.275-.275-.288-.625-.012-.35.288-.625l.025-.075q.275-.275.25-.7-.025-.425-.4-.825l-.15-.125q-.225-.25-.237-.625-.013-.375.262-.65.25-.25.638-.238.387.013.637.288l.1.075q.95.95.962 2.125.013 1.175-.787 1.95l-.075.075q-.25.25-.6.25T10.05 7.7Zm2.2 2.2q-.275-.25-.275-.613 0-.362.275-.637l2.8-2.8q.35-.35.35-.875t-.35-.875l-1-.975q-.25-.25-.238-.625.013-.375.263-.625.275-.275.638-.275.362 0 .637.275l.975.975q.875.875.875 2.125t-.875 2.15l-2.825 2.8q-.275.275-.625.263-.35-.013-.625-.288Zm4.45 4.45q-.275-.275-.275-.638 0-.362.275-.612l.875-.9q.875-.9 2.137-.9 1.263 0 2.138.9l1 1q.25.25.238.612-.013.363-.263.613-.275.275-.637.275-.363 0-.638-.275l-.975-.95q-.35-.35-.875-.35t-.875.35l-.9.9q-.25.25-.613.25-.362 0-.612-.275ZM5.825 18.5Z"/></svg>

<svg xmlns="http://www.w3.org/2000/svg" height="24" width="24"><path d="M4.125 21.925Q3.325 22.225 2.713 21.625Q2.1 21.025 2.4 20.225L5.65 11.15Q6.125 9.775 7.538 9.45Q8.95 9.125 10 10.175L14.175 14.325Q15.225 15.4 14.9 16.812Q14.575 18.225 13.175 18.7ZM5.825 18.5 12.275 16.2Q12.275 16.2 12.275 16.2Q12.275 16.2 12.275 16.2L8.15 12.05Q8.15 12.05 8.15 12.05Q8.15 12.05 8.15 12.05ZM14.475 12.15Q14.2 11.875 14.2 11.5Q14.2 11.125 14.475 10.85L19.2 6.15Q20.075 5.25 21.338 5.25Q22.6 5.25 23.475 6.15L23.55 6.2Q23.8 6.45 23.825 6.825Q23.85 7.2 23.55 7.475Q23.3 7.75 22.925 7.75Q22.55 7.75 22.275 7.475L22.2 7.4Q21.85 7.05 21.325 7.05Q20.8 7.05 20.45 7.4L15.725 12.175Q15.475 12.4 15.1 12.4Q14.725 12.4 14.475 12.15ZM10.05 7.7Q9.775 7.425 9.762 7.075Q9.75 6.725 10.05 6.45L10.075 6.375Q10.35 6.1 10.325 5.675Q10.3 5.25 9.925 4.85L9.775 4.725Q9.55 4.475 9.538 4.1Q9.525 3.725 9.8 3.45Q10.05 3.2 10.438 3.212Q10.825 3.225 11.075 3.5L11.175 3.575Q12.125 4.525 12.137 5.7Q12.15 6.875 11.35 7.65L11.275 7.725Q11.025 7.975 10.675 7.975Q10.325 7.975 10.05 7.7ZM12.25 9.9Q11.975 9.65 11.975 9.287Q11.975 8.925 12.25 8.65L15.05 5.85Q15.4 5.5 15.4 4.975Q15.4 4.45 15.05 4.1L14.05 3.125Q13.8 2.875 13.812 2.5Q13.825 2.125 14.075 1.875Q14.35 1.6 14.713 1.6Q15.075 1.6 15.35 1.875L16.325 2.85Q17.2 3.725 17.2 4.975Q17.2 6.225 16.325 7.125L13.5 9.925Q13.225 10.2 12.875 10.188Q12.525 10.175 12.25 9.9ZM16.7 14.35Q16.425 14.075 16.425 13.712Q16.425 13.35 16.7 13.1L17.575 12.2Q18.45 11.3 19.712 11.3Q20.975 11.3 21.85 12.2L22.85 13.2Q23.1 13.45 23.088 13.812Q23.075 14.175 22.825 14.425Q22.55 14.7 22.188 14.7Q21.825 14.7 21.55 14.425L20.575 13.475Q20.225 13.125 19.7 13.125Q19.175 13.125 18.825 13.475L17.925 14.375Q17.675 14.625 17.312 14.625Q16.95 14.625 16.7 14.35ZM5.825 18.5Q5.825 18.5 5.825 18.5Q5.825 18.5 5.825 18.5Q5.825 18.5 5.825 18.5Q5.825 18.5 5.825 18.5Z"/></svg>
